logos/launchdarkly.svg

<?xml version="1.0" encoding="UTF-8"?>
<svg width="512px" height="80px" viewBox="0 0 512 80" version="1.1" xmlns="http://www.w3.org/2000/svg" preserveAspectRatio="xMidYMid">
    <title>LaunchDarkly</title>
    <g fill="#000000">
        <path d="M30.6318177,61.6562391 L30.6318177,54.1705941 L8.48896571,54.1705941 L8.48896571,17.3705352 L0,17.3705352 L0,61.6562391 L30.6318177,61.6562391 Z M51.8934923,60.3039373 C53.7732958,58.9012974 55.2139589,56.9915108 56.0463676,54.7987601 L56.0463676,61.6562391 L64.1601786,61.6562391 L64.1601786,40.2724211 C64.190062,38.1096275 63.5832536,35.9857982 62.415273,34.1652515 C61.2331585,32.3568033 59.555131,30.9271482 57.5818846,30.0472743 C55.2129453,29.0119937 52.6458271,28.5086956 50.0613415,28.5728291 C48.5226035,28.5663904 46.9865024,28.7007263 45.4722397,28.9741574 C44.0416374,29.2391616 42.6394228,29.639377 41.2844663,30.1694177 C40.0322259,30.6661843 38.823983,31.2673872 37.6725117,31.9666705 L37.9167985,39.5744588 C39.7419641,38.3495423 41.7073673,37.3478018 43.7709568,36.5906703 C45.812487,35.8812736 47.9612591,35.530032 50.1224131,35.5524514 C51.6871977,35.4562929 53.2346907,35.9236358 54.4846771,36.8698552 C55.5081478,37.6986209 56.0884294,38.9558979 56.0550922,40.2724211 L56.0550922,42.4710021 L48.8573566,42.4710021 C44.5358071,42.4710021 41.1187003,43.3841694 38.6060362,45.2105039 C36.1389759,46.9264488 34.7152971,49.7803823 34.8283156,52.7833942 C34.8054666,54.4919181 35.2391783,56.1755627 36.0846477,57.6604053 C36.9485683,59.1201068 38.2105528,60.3034063 39.7227758,61.0716957 C41.4050895,61.9357997 43.2760369,62.3675568 45.1668813,62.3280278 C47.5696897,62.4039424 49.9315769,61.6932319 51.8934923,60.3039373 L51.8934923,60.3039373 Z M44.5648888,54.7987601 C43.6591645,54.1192766 43.1519527,53.0328618 43.212587,51.9022169 C43.1708778,50.5109578 43.8940979,49.208492 45.097085,48.5083755 C46.8195583,47.6048484 48.7569789,47.1914113 50.698232,47.3131151 L55.9329488,47.3131151 L55.9329488,48.5694472 C55.9137151,49.6955656 55.6138431,50.7990946 55.060496,51.7800735 C54.4142101,52.9492383 53.4803154,53.9341818 52.3471678,54.6417186 C51.1099782,55.4457404 49.6608529,55.8619462 48.1855679,55.836979 C46.8978646,55.8940257 45.6266908,55.5295205 44.5648888,54.7987601 L44.5648888,54.7987601 Z M90.010955,60.1992429 C92.0027376,58.3867925 93.4601013,56.0634591 94.224902,53.4813564 L94.224902,61.6562391 L102.469581,61.6562391 L102.469581,29.5761498 L94.224902,29.5761498 L94.224902,44.5474398 C94.2568801,46.5129566 93.916445,48.4667581 93.2215813,50.3056282 C92.6416874,51.8758566 91.6282102,53.2493452 90.2988644,54.2665639 C89.0129939,55.2106393 87.4530727,55.7071172 85.8580797,55.6799375 C84.283061,55.7787152 82.7406682,55.2011113 81.6179591,54.0920734 C80.5487872,52.8082733 80.017352,51.1608243 80.1347893,49.4942471 L80.1347893,29.5761498 L71.8988349,29.5761498 L71.8988349,49.6425641 C71.8988349,53.7954394 72.8847066,56.994433 74.8564499,59.2395449 C76.8703254,61.5440771 79.8259142,62.8034149 82.8830156,62.6595598 C85.4821116,62.7532726 88.0230435,61.8762312 90.010955,60.1992429 L90.010955,60.1992429 Z M119.67435,61.6736882 L119.67435,46.6849491 C119.642372,44.7194323 119.982807,42.7656308 120.677671,40.9267607 C121.254555,39.361973 122.257921,37.9899001 123.574214,36.965825 C124.845123,36.018472 126.395263,35.5211996 127.980101,35.5524514 C129.552495,35.449083 131.094507,36.0201988 132.220221,37.1228665 C133.288045,38.4039898 133.819451,40.0482209 133.703391,41.7119682 L133.703391,61.6562391 L142.009142,61.6562391 L142.009142,41.5898248 C142.009142,37.4369495 141.011637,34.2379559 139.016629,31.992844 C136.991335,29.7120548 134.046074,28.4653665 130.998787,28.5990027 C128.39277,28.4968248 125.84415,29.3816757 123.862123,31.0767686 C121.892358,32.8957595 120.446243,35.2095449 119.67435,37.7772061 L119.67435,29.5761498 L111.438396,29.5761498 L111.438396,61.6562391 L119.67435,61.6736882 Z M169.709518,62.3629259 C170.723543,62.211957 171.72413,61.9815011 172.702031,61.6736882 C173.626831,61.3770542 174.446937,61.0891448 175.319389,60.8012354 L175.380461,53.0015074 C174.049822,53.670058 172.64388,54.1767833 171.192688,54.5108507 C169.739874,54.8503533 168.252579,55.0201627 166.760627,55.0168733 C164.831055,55.0839287 162.91598,54.660691 161.194379,53.7867149 C159.768759,53.0353726 158.612911,51.8581771 157.887783,50.4190471 C156.45797,47.3798197 156.45797,43.8612937 157.887783,40.8220663 C158.618833,39.380585 159.772421,38.1965598 161.194379,37.428225 C162.869901,36.5457016 164.745673,36.1128313 166.638484,36.1718929 C168.197624,36.1641558 169.75142,36.3547156 171.262484,36.7389873 C172.681019,37.1068008 174.060228,37.6123162 175.380461,38.2483306 L175.319389,30.256663 C174.437704,29.9075699 173.534266,29.6161383 172.614786,29.3842102 C170.559461,28.8584232 168.445908,28.5945955 166.324401,28.5990027 C163.007195,28.5169989 159.72426,29.2859206 156.788492,30.8324818 C154.167306,32.2350753 151.99808,34.3528696 150.533005,36.9396514 C149.040587,39.6306851 148.279533,42.6658766 148.3257,45.7427001 C148.277256,48.798202 149.048497,51.8108623 150.559179,54.4672281 C152.042113,57.0192576 154.224988,59.0931402 156.849564,60.4435297 C159.762368,61.915089 162.991893,62.6490719 166.254605,62.5810391 C167.39892,62.5888965 168.542189,62.5101509 169.67462,62.3454768 L169.709518,62.3629259 Z M190.945019,61.6736882 L190.945019,46.6849491 C190.913041,44.7194323 191.253476,42.7656308 191.94834,40.9267607 C192.528234,39.3565323 193.541711,37.9830437 194.871057,36.965825 C196.132175,36.0317292 197.664033,35.5354075 199.233321,35.5524514 C200.824995,35.4414629 202.388797,36.0124249 203.534513,37.1228665 C204.602337,38.4039898 205.133742,40.0482209 205.017683,41.7119682 L205.017683,61.6562391 L213.253637,61.6562391 L213.253637,41.5898248 C213.253637,37.4369495 212.267765,34.2379559 210.296022,31.992844 C208.286839,29.7102773 205.350871,28.4620898 202.313079,28.5990027 C199.696837,28.4991555 197.138131,29.3831851 195.141517,31.0767686 C193.155818,32.8872709 191.699297,35.2032294 190.92757,37.7772061 L190.92757,17.3705352 L182.813759,17.3705352 L182.813759,61.6562391 L190.945019,61.6736882 Z M239.758753,61.6736882 C243.927066,61.7971174 248.059146,60.8668744 251.772428,58.9690845 C255.010357,57.237064 257.643042,54.558725 259.319145,51.2914999 C261.111047,47.6573242 261.994233,43.6425712 261.89288,39.5919079 C261.988095,35.5334418 261.105336,31.5116509 259.319145,27.8661423 C257.645797,24.5815111 255.014005,21.882784 251.772428,20.127486 C248.065205,18.2096988 243.930894,17.2669438 239.758753,17.3879842 L222.737199,17.3879842 L222.737199,61.6562391 L239.758753,61.6736882 Z M231.199991,54.170614 L231.199991,24.8561802 L239.627885,24.8561802 C243.868006,24.8561802 247.192051,26.1474103 249.60002,28.7298706 C252.00799,31.3123309 253.214883,34.9271936 253.2207,39.5744588 C253.2207,44.2275404 252.013807,47.8249541 249.60002,50.3666999 C247.186234,52.9084457 243.862189,54.1764105 239.627885,54.170614 L231.199991,54.170614 Z M283.477363,60.2777637 C285.354426,58.8723713 286.79443,56.9634582 287.630238,54.7725865 L287.630238,61.6300655 L295.761498,61.6300655 L295.761498,40.2724211 C295.804394,38.1140591 295.212851,35.9905726 294.060215,34.1652515 C292.865264,32.3513669 291.171683,30.921366 289.183204,30.0472743 C286.81703,29.0129748 284.252967,28.5096918 281.671385,28.5728291 C280.12975,28.5662484 278.59074,28.7005832 277.073559,28.9741574 C275.645787,29.2391337 274.246465,29.6393572 272.89451,30.1694177 C271.638698,30.6644356 270.427412,31.2657005 269.273831,31.9666705 L269.526842,39.5744588 C271.351021,38.3478642 273.316633,37.3460175 275.381001,36.5906703 C277.422358,35.880591 279.57125,35.5293299 281.732457,35.5524514 C283.297514,35.4539451 284.845807,35.9215296 286.094721,36.8698552 C287.120376,37.6977083 287.703744,38.9546898 287.673861,40.2724211 L287.673861,42.4710021 L280.502299,42.4710021 C276.140035,42.4710021 272.763642,43.3434549 270.242254,45.2105039 C267.779769,46.9295371 266.359919,49.7823842 266.473258,52.7833942 C266.450409,54.4919181 266.88412,56.1755627 267.72959,57.6604053 C268.581812,59.1170302 269.83177,60.3004046 271.33282,61.0716957 C273.011759,61.9364707 274.880066,62.3683107 276.768201,62.3280278 C279.188658,62.4148278 281.570546,61.7036335 283.547159,60.3039373 L283.477363,60.2777637 Z M276.148759,54.7725865 C275.257108,54.0956847 274.760113,53.0199505 274.822631,51.9022169 C274.780922,50.5109578 275.504142,49.208492 276.707129,48.5083755 C278.429295,47.6039985 280.366956,47.19051 282.308276,47.3131151 L287.542993,47.3131151 L287.542993,48.5694472 C287.519425,49.6949453 287.219835,50.7974364 286.67054,51.7800735 C286.026686,52.9481834 285.095887,53.9330294 283.965936,54.6417186 C282.723571,55.4486005 281.268019,55.8649066 279.786887,55.836979 C278.501901,55.8940321 277.233492,55.5294411 276.174933,54.7987601 L276.148759,54.7725865 Z M312.338101,61.6562391 L312.338101,47.9849038 C312.338101,44.4252964 313.08841,41.7032437 314.597754,39.8449192 C316.072264,37.993296 318.339666,36.9535304 320.704923,37.0443457 C321.855025,37.0349059 322.999721,37.2026377 324.098765,37.5416438 L324.098765,29.6633951 C323.575,29.5018606 323.037711,29.3879788 322.493452,29.3231385 C321.914573,29.2526663 321.331662,29.2206062 320.748546,29.2271687 C318.79981,29.2109571 316.930879,30.0002018 315.583625,31.4083007 C314.028654,33.0537416 312.912569,35.0638949 312.338101,37.2537344 L312.338101,29.5761498 L304.093422,29.5761498 L304.093422,61.6562391 L312.338101,61.6562391 Z M337.560711,61.6562391 L337.560711,51.2740508 L340.518326,48.4473038 L350.115307,61.6562391 L359.799533,61.6562391 L346.0933,42.9072285 L359.546522,29.5761498 L349.23413,29.5761498 L337.534538,41.0052814 L337.534538,17.4490559 L329.420727,17.4490559 L329.420727,61.6562391 L337.560711,61.6562391 Z M373.104438,61.6562391 L373.104438,17.3705352 L364.920831,17.3705352 L364.920831,61.6562391 L373.104438,61.6562391 Z M385.624136,73.6088424 C388.223577,73.7175839 390.798995,73.0722144 393.039985,71.750518 C394.965197,70.511635 396.558878,68.3624929 397.821026,65.3030918 L412.574203,29.5761498 L404.146309,29.5761498 L395.421781,52.0330848 L386.601283,29.5761498 L378.173389,29.5761498 L391.382324,61.5951674 L390.684362,63.2266541 C390.362843,64.1842031 389.753438,65.0190872 388.939457,65.6171748 C387.939436,66.1908006 386.791753,66.45495 385.641585,66.3762087 L378.792831,66.3762087 L378.792831,73.6088424 L385.624136,73.6088424 Z"></path>
        <path d="M472.956661,79.0267778 C472.289418,79.0281096 471.679832,78.6488121 471.386246,78.0496272 C471.101849,77.4855802 471.162749,76.8089244 471.543287,76.3047216 L490.109083,50.7418546 L457.601492,64.0205862 C457.381161,64.116404 457.143784,64.1668467 456.903529,64.1689032 C456.131249,64.1650389 455.453376,63.6539721 455.237145,62.9125711 C455.015525,62.1871626 455.309003,61.4033625 455.952556,61.0018995 L484.542834,44.1199379 L434.202308,41.2233946 C433.367497,41.0771508 432.758493,40.3521858 432.758493,39.5046626 C432.758493,38.6571394 433.367497,37.9321744 434.202308,37.7859306 L484.569008,34.8981119 L455.970005,18.0161502 C455.326452,17.6146873 455.032974,16.8308872 455.254594,16.1054786 C455.469898,15.3671501 456.143212,14.8568486 456.912254,14.8491466 C457.153759,14.8483259 457.392337,14.902006 457.610216,15.0061881 L490.126532,28.3023687 L471.560736,2.74822631 C471.180198,2.24402351 471.119299,1.56736768 471.403695,1.00332072 C471.688436,0.396769343 472.295359,0.00684659027 472.965385,0 C473.423835,0.00304737742 473.861437,0.191940473 474.178095,0.523471678 L511.178818,37.5154702 C512.273727,38.6121923 512.273727,40.3884084 511.178818,41.4851305 L474.160646,78.5207517 C473.843737,78.8445324 473.409723,79.0267778 472.956661,79.0267778 Z"></path>
    </g>
</svg>

<svg preserveAspectRatio="xMidYMid" viewBox="0 0 512 80" xmlns="http://www.w3.org/2000/svg">
  <path d="M30.632 61.656v-7.485H8.489v-36.8H0v44.285h30.632Zm21.261-1.352a12.328 12.328 0 0 0 4.153-5.505v6.857h8.114V40.272a11.028 11.028 0 0 0-1.745-6.107 11.246 11.246 0 0 0-4.833-4.118 17.685 17.685 0 0 0-7.52-1.474 25.231 25.231 0 0 0-4.59.401 22.99 22.99 0 0 0-4.188 1.195 24.027 24.027 0 0 0-3.611 1.798l.244 7.607a27.508 27.508 0 0 1 5.854-2.983 18.75 18.75 0 0 1 6.351-1.039 6.56 6.56 0 0 1 4.363 1.318 4.24 4.24 0 0 1 1.57 3.402v2.199h-7.198c-4.321 0-7.738.913-10.251 2.74a8.82 8.82 0 0 0-3.778 7.572 9.597 9.597 0 0 0 1.257 4.877 8.925 8.925 0 0 0 3.638 3.412 11.394 11.394 0 0 0 5.444 1.256 11.037 11.037 0 0 0 6.726-2.024Zm-7.328-5.505a3.394 3.394 0 0 1-1.352-2.897 3.795 3.795 0 0 1 1.884-3.394 10.626 10.626 0 0 1 5.601-1.195h5.235v1.256a6.77 6.77 0 0 1-.873 3.211 7.852 7.852 0 0 1-2.713 2.862 7.407 7.407 0 0 1-4.161 1.195 5.924 5.924 0 0 1-3.621-1.038Zm45.446 5.4a14.744 14.744 0 0 0 4.214-6.718v8.175h8.245v-32.08h-8.245v14.971a15.573 15.573 0 0 1-1.003 5.759 8.847 8.847 0 0 1-2.923 3.96 7.294 7.294 0 0 1-4.44 1.414 5.54 5.54 0 0 1-4.241-1.588 6.474 6.474 0 0 1-1.483-4.598V29.576h-8.236v20.067c0 4.152.986 7.351 2.957 9.597a10.033 10.033 0 0 0 8.027 3.42c2.6.093 5.14-.784 7.128-2.46Zm29.663 1.475v-14.99a15.573 15.573 0 0 1 1.004-5.757 8.934 8.934 0 0 1 2.896-3.961 7.137 7.137 0 0 1 4.406-1.414 5.54 5.54 0 0 1 4.24 1.57 6.465 6.465 0 0 1 1.483 4.59v19.944h8.306V41.59c0-4.153-.997-7.352-2.992-9.597a10.13 10.13 0 0 0-8.018-3.394 10.356 10.356 0 0 0-7.137 2.478 14.997 14.997 0 0 0-4.188 6.7v-8.2h-8.236v32.08l8.236.017Zm50.036.689a19.56 19.56 0 0 0 2.992-.69c.925-.296 1.745-.584 2.617-.872l.061-7.8a18.644 18.644 0 0 1-4.187 1.51c-1.453.34-2.94.51-4.432.506a11.42 11.42 0 0 1-5.567-1.23 7.747 7.747 0 0 1-3.306-3.368 11.272 11.272 0 0 1 0-9.597 7.94 7.94 0 0 1 3.306-3.394 10.95 10.95 0 0 1 5.444-1.256c1.56-.008 3.113.183 4.624.567a22.5 22.5 0 0 1 4.118 1.51l-.06-7.992a21.89 21.89 0 0 0-2.705-.873 25.17 25.17 0 0 0-6.29-.785 19.43 19.43 0 0 0-9.537 2.233 15.704 15.704 0 0 0-6.255 6.108 17.606 17.606 0 0 0-2.207 8.803 17.1 17.1 0 0 0 2.233 8.724 15.451 15.451 0 0 0 6.29 5.977 19.936 19.936 0 0 0 9.406 2.137c1.144.008 2.287-.07 3.42-.236l.035.018Zm21.235-.69V46.686a15.573 15.573 0 0 1 1.003-5.758 8.847 8.847 0 0 1 2.923-3.961 7.198 7.198 0 0 1 4.362-1.414 5.619 5.619 0 0 1 4.302 1.57 6.465 6.465 0 0 1 1.483 4.59v19.944h8.236V41.59c0-4.153-.986-7.352-2.958-9.597a10.033 10.033 0 0 0-7.983-3.394 10.47 10.47 0 0 0-7.171 2.478 14.832 14.832 0 0 0-4.214 6.7V17.371h-8.114v44.285l8.131.018Zm48.814 0c4.168.124 8.3-.806 12.013-2.704a18.051 18.051 0 0 0 7.547-7.678 25.04 25.04 0 0 0 2.574-11.7 25.301 25.301 0 0 0-2.574-11.725 18.19 18.19 0 0 0-7.547-7.739 24.594 24.594 0 0 0-12.013-2.739h-17.022v44.268l17.022.018Zm-8.559-7.502V24.856h8.428c4.24 0 7.564 1.291 9.972 3.874 2.408 2.582 3.615 6.197 3.62 10.844 0 4.654-1.206 8.251-3.62 10.793-2.414 2.541-5.738 3.81-9.972 3.804H231.2Zm52.277 6.107a12.398 12.398 0 0 0 4.153-5.505v6.857h8.131V40.272a11.028 11.028 0 0 0-1.7-6.107 11.272 11.272 0 0 0-4.878-4.118 17.676 17.676 0 0 0-7.512-1.474 25.301 25.301 0 0 0-4.597.401 22.893 22.893 0 0 0-4.18 1.195 23.73 23.73 0 0 0-3.62 1.798l.253 7.607a27.308 27.308 0 0 1 5.854-2.983 18.723 18.723 0 0 1 6.351-1.039 6.535 6.535 0 0 1 4.363 1.318 4.249 4.249 0 0 1 1.579 3.402v2.199h-7.172c-4.362 0-7.738.872-10.26 2.74a8.83 8.83 0 0 0-3.769 7.572 9.597 9.597 0 0 0 1.257 4.877 8.873 8.873 0 0 0 3.603 3.412 11.342 11.342 0 0 0 5.435 1.256c2.42.087 4.803-.624 6.78-2.024l-.07-.026Zm-7.328-5.505a3.368 3.368 0 0 1-1.326-2.87 3.795 3.795 0 0 1 1.884-3.395 10.609 10.609 0 0 1 5.601-1.195h5.235v1.256a6.875 6.875 0 0 1-.872 3.211 7.852 7.852 0 0 1-2.705 2.862 7.416 7.416 0 0 1-4.18 1.195 5.898 5.898 0 0 1-3.611-1.038l-.026-.026Zm36.19 6.883V47.985c0-3.56.75-6.282 2.259-8.14a7.442 7.442 0 0 1 6.107-2.8c1.15-.01 2.295.158 3.394.497v-7.879a9.1 9.1 0 0 0-1.606-.34 13.209 13.209 0 0 0-1.744-.096 7.067 7.067 0 0 0-5.165 2.181 13.497 13.497 0 0 0-3.246 5.846v-7.678h-8.245v32.08h8.245Zm25.222 0V51.274l2.957-2.827 9.597 13.21h9.685l-13.707-18.75 13.454-13.33h-10.313l-11.7 11.428V17.45h-8.113v44.207h8.14Zm35.543 0V17.371h-8.183v44.285h8.183Zm12.52 11.953a13.49 13.49 0 0 0 7.416-1.858c1.925-1.24 3.519-3.389 4.781-6.448l14.753-35.727h-8.428l-8.724 22.457-8.82-22.457h-8.429l13.21 32.02-.699 1.63a4.903 4.903 0 0 1-1.745 2.391 5.83 5.83 0 0 1-3.297.76h-6.85v7.232h6.832Z"/>
  <path d="M472.957 79.027a1.745 1.745 0 0 1-1.57-.977 1.658 1.658 0 0 1 .156-1.745l18.566-25.563-32.508 13.279c-.22.095-.457.146-.697.148a1.745 1.745 0 0 1-1.667-1.256 1.675 1.675 0 0 1 .716-1.911l28.59-16.882-50.34-2.897a1.745 1.745 0 0 1 0-3.437l50.366-2.888-28.599-16.882a1.675 1.675 0 0 1-.715-1.91 1.745 1.745 0 0 1 1.657-1.257c.242 0 .48.053.698.157l32.517 13.296L471.56 2.748a1.658 1.658 0 0 1-.157-1.745A1.745 1.745 0 0 1 472.965 0c.459.003.896.192 1.213.523l37 36.992a2.81 2.81 0 0 1 0 3.97l-37.017 37.036a1.684 1.684 0 0 1-1.204.506Z"/>
</svg>
